X: 9972
T: Devil's Deli, The
R: jig
M: 6/8
K: Dmajor
|:Abb afe|edB def|fgg fed|def edB|Abb afe|edB def|gef dec|dBc A2G:|
|:A2c cBc|cBc cBc|A2d dcd|dcd def|gef gef|age age|bbb afe|edB d2B:|

